Origami/24x24/apps/android-sdk.svg

<svg width="24" height="24" version="1" xmlns="http://www.w3.org/2000/svg">
 <rect transform="matrix(0,-1,-1,0,0,0)" x="-21.5" y="-21" width="19" height="19" rx="9.5" ry="9.5" style="opacity:.2"/>
 <rect transform="matrix(0,-1,-1,0,0,0)" x="-21" y="-21" width="19" height="19" rx="9.5" ry="9.5" style="fill:#32867d"/>
 <path d="m9.300781 4.800781c-0.02881-0.00687-0.05873-0.00212-0.08398 0.015625-0.051 0.033-0.06048 0.1056563-0.02148 0.1601563l0.646484 0.921875c-1.0275 0.469-1.749797 1.5625625-1.841797 2.6015625h7c-0.09195-1.038474-0.811222-2.1341636-1.837891-2.6015625l0.646485-0.921875c0.039-0.0545 0.02752-0.1251562-0.02149-0.1601563-0.051-0.035-0.123109-0.017391-0.162109 0.037109l-0.669922 0.9570313c-0.4435-0.172-0.935625-0.2675781-1.453125-0.2675781s-1.010125 0.095578-1.453125 0.2675781l-0.67187-0.9570309c-0.0195-0.02725-0.04736-0.045859-0.07617-0.052734zm0.72461 1.9902344c0.215 0 0.386718 0.1699063 0.386718 0.3789063s-0.174218 0.3808593-0.386718 0.3808593c-0.215001 0-0.388673-0.1698593-0.388673-0.3808593 0-0.209 0.174172-0.3789063 0.388673-0.3789063zm3 0c0.213 0 0.386718 0.1699063 0.386718 0.3789063s-0.174218 0.3808593-0.386718 0.3808593c-0.215 0-0.388672-0.1698593-0.388672-0.3808593 0-0.209 0.174172-0.3789063 0.388672-0.3789063zm-5.023438 2.7089844v5.7968742c0 0.344 0.16 0.703125 0.5 0.703125h1.498047v1.6875c0 0.449 0 0.8125 0.5 0.8125s0.501953-0.3635 0.501953-0.8125v-1.6875h1v1.6875c0 0.449-0.03902 0.8125 0.498047 0.8125 0.5 0 0.5-0.249564 0.5-0.8125v-1.6875h1.503906c0.338 0 0.5-0.35965 0.5-0.703125v-5.7968742zm-1.478516 0.00195c-0.52289-0.001397-0.523437 0.377393-0.523437 0.8437532v3.308593c0 0.46686 5.48e-4 0.84919 0.523437 0.847656 0.47711-0.0014 0.476563-0.381295 0.476563-0.847656v-3.308593c0-0.46686 5.47e-4 -0.8451501-0.476563-0.8437501zm9.955079 0c-0.478478-0.001397-0.478516 0.377393-0.478516 0.8437532v3.308593c0 0.46686 3.8e-5 0.84894 0.478516 0.847656 0.521522-0.0014 0.521484-0.381295 0.521484-0.847656v-3.308593c0-0.46686 3.8e-5 -0.8451501-0.521484-0.8437501z" style="opacity:.2"/>
 <path d="m9.300781 4.3007817c-0.02881-0.00687-0.05873-0.00212-0.08398 0.015625-0.051 0.033-0.06048 0.1056563-0.02148 0.1601563l0.646484 0.921875c-1.0275 0.469-1.749797 1.5625625-1.841797 2.6015625h7c-0.09195-1.038474-0.811222-2.1341636-1.837891-2.6015625l0.646485-0.921875c0.039-0.0545 0.02752-0.1251562-0.02149-0.1601563-0.051-0.035-0.123109-0.017391-0.162109 0.037109l-0.669922 0.9570313c-0.4435-0.172-0.935625-0.2675781-1.453125-0.2675781s-1.010125 0.095578-1.453125 0.2675781l-0.67187-0.9570309c-0.0195-0.02725-0.04736-0.045859-0.07617-0.052734zm0.72461 1.9902344c0.215 0 0.386718 0.1699063 0.386718 0.3789063s-0.174218 0.3808593-0.386718 0.3808593c-0.215001 0-0.388673-0.1698593-0.388673-0.3808593 0-0.209 0.174172-0.3789063 0.388673-0.3789063zm3 0c0.213 0 0.386718 0.1699063 0.386718 0.3789063s-0.174218 0.3808593-0.386718 0.3808593c-0.215 0-0.388672-0.1698593-0.388672-0.3808593 0-0.209 0.174172-0.3789063 0.388672-0.3789063zm-5.023438 2.7089844v5.7968745c0 0.344 0.16 0.703125 0.5 0.703125h1.498047v1.6875c0 0.449 0 0.8125 0.5 0.8125s0.501953-0.3635 0.501953-0.8125v-1.6875h1v1.6875c0 0.449-0.03902 0.8125 0.498047 0.8125 0.5 0 0.5-0.249564 0.5-0.8125v-1.6875h1.503906c0.338 0 0.5-0.35965 0.5-0.703125v-5.7968745zm-1.478516 0.00195c-0.52289-0.001397-0.523437 0.377393-0.523437 0.8437531v3.3085934c0 0.46686 5.48e-4 0.84919 0.523437 0.847656 0.47711-0.0014 0.476563-0.381295 0.476563-0.847656v-3.3085934c0-0.4668599 5.47e-4 -0.84515-0.476563-0.84375zm9.955079 0c-0.478478-0.001397-0.478516 0.377393-0.478516 0.8437531v3.3085934c0 0.46686 3.8e-5 0.84894 0.478516 0.847656 0.521522-0.0014 0.521484-0.381295 0.521484-0.847656v-3.3085934c0-0.4668599 3.8e-5 -0.84515-0.521484-0.84375z" style="fill:#7dff7c"/>
 <path d="m11.5 2c-5.263 0-9.5 4.237-9.5 9.5 0 0.084363 0.0095546 0.166177 0.0117188 0.25 0.1328446-5.1454598 4.3096444-9.25 9.4882812-9.25 5.178637 0 9.355437 4.1045402 9.488281 9.25 0.002164-0.083823 0.011719-0.165637 0.011719-0.25 0-5.263-4.237-9.5-9.5-9.5z" style="fill:#ffffff;opacity:.1"/>
</svg>

<svg xmlns="http://www.w3.org/2000/svg" width="24" height="24" version="1">
 <rect style="opacity:0.2" width="19" height="19" x="-21.5" y="-21" rx="9.5" ry="9.5" transform="matrix(0,-1,-1,0,0,0)"/>
 <rect style="fill:#32867d" width="19" height="19" x="-21" y="-21" rx="9.5" ry="9.5" transform="matrix(0,-1,-1,0,0,0)"/>
 <path style="opacity:0.2" d="m 9.300781,4.800781 c -0.02881,-0.00687 -0.05873,-0.00212 -0.08398,0.015625 -0.051,0.033 -0.06048,0.1056563 -0.02148,0.1601563 l 0.646484,0.921875 c -1.0275,0.469 -1.749797,1.5625625 -1.841797,2.6015625 h 7 C 14.908058,7.4615258 14.188786,6.3658362 13.162117,5.8984373 l 0.646485,-0.921875 c 0.039,-0.0545 0.02752,-0.1251562 -0.02149,-0.1601563 -0.051,-0.035 -0.123109,-0.017391 -0.162109,0.037109 l -0.669922,0.9570313 c -0.4435,-0.172 -0.935625,-0.2675781 -1.453125,-0.2675781 -0.5175,0 -1.010125,0.095578 -1.453125,0.2675781 L 9.376961,4.8535154 c -0.0195,-0.02725 -0.04736,-0.045859 -0.07617,-0.052734 z m 0.72461,1.9902344 c 0.215,0 0.386718,0.1699063 0.386718,0.3789063 0,0.209 -0.174218,0.3808593 -0.386718,0.3808593 -0.215001,0 -0.388673,-0.1698593 -0.388673,-0.3808593 0,-0.209 0.174172,-0.3789063 0.388673,-0.3789063 z m 3,0 c 0.213,0 0.386718,0.1699063 0.386718,0.3789063 0,0.209 -0.174218,0.3808593 -0.386718,0.3808593 -0.215,0 -0.388672,-0.1698593 -0.388672,-0.3808593 0,-0.209 0.174172,-0.3789063 0.388672,-0.3789063 z M 8.001953,9.4999998 v 5.7968742 c 0,0.344 0.16,0.703125 0.5,0.703125 H 10 v 1.6875 c 0,0.449 0,0.8125 0.5,0.8125 0.5,0 0.501953,-0.3635 0.501953,-0.8125 v -1.6875 h 1 v 1.6875 c 0,0.449 -0.03902,0.8125 0.498047,0.8125 0.5,0 0.5,-0.249564 0.5,-0.8125 v -1.6875 h 1.503906 c 0.338,0 0.5,-0.35965 0.5,-0.703125 V 9.4999998 Z m -1.478516,0.00195 C 6.000547,9.5005528 6,9.8793428 6,10.345703 v 3.308593 c 0,0.46686 5.48e-4,0.84919 0.523437,0.847656 C 7.000547,14.500552 7,14.120657 7,13.654296 V 10.345703 C 7,9.878843 7.000547,9.5005529 6.523437,9.5019529 Z m 9.955079,0 C 16.000038,9.5005528 16,9.8793428 16,10.345703 v 3.308593 c 0,0.46686 3.8e-5,0.84894 0.478516,0.847656 C 17.000038,14.500552 17,14.120657 17,13.654296 v -3.308593 c 0,-0.46686 3.8e-5,-0.8451501 -0.521484,-0.8437501 z"/>
 <path style="fill:#7dff7c" d="m 9.300781,4.3007817 c -0.02881,-0.00687 -0.05873,-0.00212 -0.08398,0.015625 -0.051,0.033 -0.06048,0.1056563 -0.02148,0.1601563 l 0.646484,0.921875 c -1.0275,0.469 -1.749797,1.5625625 -1.841797,2.6015625 h 7 C 14.908058,6.9615265 14.188786,5.8658369 13.162117,5.398438 l 0.646485,-0.921875 c 0.039,-0.0545 0.02752,-0.1251562 -0.02149,-0.1601563 -0.051,-0.035 -0.123109,-0.017391 -0.162109,0.037109 L 12.955081,5.310547 c -0.4435,-0.172 -0.935625,-0.2675781 -1.453125,-0.2675781 -0.5175,0 -1.010125,0.095578 -1.453125,0.2675781 L 9.376961,4.3535161 c -0.0195,-0.02725 -0.04736,-0.045859 -0.07617,-0.052734 z m 0.72461,1.9902344 c 0.215,0 0.386718,0.1699063 0.386718,0.3789063 0,0.209 -0.174218,0.3808593 -0.386718,0.3808593 -0.215001,0 -0.388673,-0.1698593 -0.388673,-0.3808593 0,-0.209 0.174172,-0.3789063 0.388673,-0.3789063 z m 3,0 c 0.213,0 0.386718,0.1699063 0.386718,0.3789063 0,0.209 -0.174218,0.3808593 -0.386718,0.3808593 -0.215,0 -0.388672,-0.1698593 -0.388672,-0.3808593 0,-0.209 0.174172,-0.3789063 0.388672,-0.3789063 z M 8.001953,9.0000005 v 5.7968745 c 0,0.344 0.16,0.703125 0.5,0.703125 H 10 v 1.6875 C 10,17.6365 10,18 10.5,18 11,18 11.001953,17.6365 11.001953,17.1875 V 15.5 h 1 v 1.6875 C 12.001953,17.6365 11.962933,18 12.5,18 13,18 13,17.750436 13,17.1875 V 15.5 h 1.503906 c 0.338,0 0.5,-0.35965 0.5,-0.703125 V 9.0000005 Z m -1.478516,0.00195 C 6.000547,9.0005535 6,9.3793435 6,9.8457036 v 3.3085934 c 0,0.46686 5.48e-4,0.84919 0.523437,0.847656 C 7.000547,14.000553 7,13.620658 7,13.154297 V 9.8457036 c 0,-0.4668599 5.47e-4,-0.84515 -0.476563,-0.84375 z m 9.955079,0 C 16.000038,9.0005535 16,9.3793435 16,9.8457036 v 3.3085934 c 0,0.46686 3.8e-5,0.84894 0.478516,0.847656 C 17.000038,14.000553 17,13.620658 17,13.154297 V 9.8457036 c 0,-0.4668599 3.8e-5,-0.84515 -0.521484,-0.84375 z"/>
 <path style="fill:#ffffff;opacity:0.1" d="M 11.5 2 C 6.237 2 2 6.237 2 11.5 C 2 11.584363 2.0095546 11.666177 2.0117188 11.75 C 2.1445634 6.6045402 6.3213632 2.5 11.5 2.5 C 16.678637 2.5 20.855437 6.6045402 20.988281 11.75 C 20.990445 11.666177 21 11.584363 21 11.5 C 21 6.237 16.763 2 11.5 2 z"/>
</svg>
